_includes/icons/ios-sent.svg

<svg fill="#666" height="50" viewBox="0 0 50 50" width="50" xmlns="http://www.w3.org/2000/svg"><path d="m44.875 4c-.097656.015625-.191406.046875-.28125.09375l-40 17.1875c-.355469.15625-.585937.507813-.59375.894531-.007812.390625.214844.746094.5625.917969l14.90625 7.4375 7.4375 14.90625c.171875.347656.527344.570313.917969.5625.386719-.007812.738281-.238281.894531-.59375l17.1875-40c.148438-.328125.109375-.714844-.105469-1.003906-.210937-.292969-.566406-.445313-.925781-.402344zm-4.25 3.96875-20.625 20.625-12.625-6.3125zm1.40625 1.40625-14.3125 33.25-6.3125-12.625z"/></svg>

<svg xmlns="http://www.w3.org/2000/svg" viewBox="0 0 50 50" width="50" height="50" fill="#666"><path d="M 44.875 4 C 44.777344 4.015625 44.683594 4.046875 44.59375 4.09375 L 4.59375 21.28125 C 4.238281 21.4375 4.007813 21.789063 4 22.175781 C 3.992188 22.566406 4.214844 22.921875 4.5625 23.09375 L 19.46875 30.53125 L 26.90625 45.4375 C 27.078125 45.785156 27.433594 46.007813 27.824219 46 C 28.210938 45.992188 28.5625 45.761719 28.71875 45.40625 L 45.90625 5.40625 C 46.054688 5.078125 46.015625 4.691406 45.800781 4.402344 C 45.589844 4.109375 45.234375 3.957031 44.875 4 Z M 40.625 7.96875 L 20 28.59375 L 7.375 22.28125 Z M 42.03125 9.375 L 27.71875 42.625 L 21.40625 30 Z"/></svg>
